icons/rows-16.svg

<svg width="16" height="16" viewBox="0 0 16 16" fill="none" xmlns="http://www.w3.org/2000/svg">
<g clip-path="url(#clip0)">
<path fill-rule="evenodd" clip-rule="evenodd" d="M16 2.75C16 2.28587 15.8156 1.84075 15.4874 1.51256C15.1592 1.18437 14.7141 1 14.25 1L1.75 1C0.784 1 -3.42697e-08 1.784 -7.64949e-08 2.75L-1.85773e-07 5.25C-2.06061e-07 5.71413 0.184374 6.15925 0.512563 6.48744C0.840751 6.81563 1.28587 7 1.75 7L14.25 7C14.7141 7 15.1592 6.81563 15.4874 6.48744C15.8156 6.15925 16 5.71413 16 5.25L16 2.75ZM14.25 2.5C14.3163 2.5 14.3799 2.52634 14.4268 2.57322C14.4737 2.62011 14.5 2.6837 14.5 2.75L14.5 5.25C14.5 5.3163 14.4737 5.37989 14.4268 5.42678C14.3799 5.47366 14.3163 5.5 14.25 5.5L1.75 5.5C1.6837 5.5 1.62011 5.47366 1.57322 5.42678C1.52634 5.37989 1.5 5.3163 1.5 5.25L1.5 2.75C1.5 2.6837 1.52634 2.62011 1.57322 2.57322C1.62011 2.52634 1.6837 2.5 1.75 2.5L14.25 2.5ZM16 10.75C16 10.2859 15.8156 9.84075 15.4874 9.51256C15.1592 9.18437 14.7141 9 14.25 9L1.75 9C0.784 9 -3.83961e-07 9.784 -4.26186e-07 10.75L-5.35465e-07 13.25C-5.55752e-07 13.7141 0.184374 14.1592 0.512562 14.4874C0.840751 14.8156 1.28587 15 1.75 15L14.25 15C14.7141 15 15.1592 14.8156 15.4874 14.4874C15.8156 14.1592 16 13.7141 16 13.25L16 10.75ZM14.25 10.5C14.3163 10.5 14.3799 10.5263 14.4268 10.5732C14.4737 10.6201 14.5 10.6837 14.5 10.75L14.5 13.25C14.5 13.3163 14.4737 13.3799 14.4268 13.4268C14.3799 13.4737 14.3163 13.5 14.25 13.5L1.75 13.5C1.6837 13.5 1.62011 13.4737 1.57322 13.4268C1.52634 13.3799 1.5 13.3163 1.5 13.25L1.5 10.75C1.5 10.6837 1.52634 10.6201 1.57322 10.5732C1.62011 10.5263 1.6837 10.5 1.75 10.5L14.25 10.5Z" fill="black"/>
</g>
<defs>
<clipPath id="clip0">
<rect width="16" height="16" fill="white"/>
</clipPath>
</defs>
</svg>

<svg xmlns="http://www.w3.org/2000/svg" width="16" height="16" viewBox="0 0 16 16"><path fill-rule="evenodd" d="M16 2.75A1.75 1.75 0 0014.25 1H1.75A1.75 1.75 0 000 2.75v2.5A1.75 1.75 0 001.75 7h12.5A1.75 1.75 0 0016 5.25v-2.5zm-1.75-.25a.25.25 0 01.25.25v2.5a.25.25 0 01-.25.25H1.75a.25.25 0 01-.25-.25v-2.5a.25.25 0 01.25-.25h12.5zM16 10.75A1.75 1.75 0 0014.25 9H1.75A1.75 1.75 0 000 10.75v2.5A1.75 1.75 0 001.75 15h12.5A1.75 1.75 0 0016 13.25v-2.5zm-1.75-.25a.25.25 0 01.25.25v2.5a.25.25 0 01-.25.25H1.75a.25.25 0 01-.25-.25v-2.5a.25.25 0 01.25-.25h12.5z"/></svg>
